X: 1666
T: Listen to the Mocking Bird
C:Richard Milburn (Pub 1856)
B: australian traditional tunes wiki
M:4/4
L:1/8
R: March
Q: 1/4=100
K:G
V:1 
Bc|:"D"d3d (3fgf ed|"G"dg gg gg (3g/a/g/ f|"D"df ff (3fgf fe|"G"dg gg g2GB|
"D"d3d f3g/g/|"G"ag gg g2dB|"C"e2e2"D7"ed cF|"G"G6B2|
"D"BA AA AA AA|"G"AG GG GG DG|"D"FA AA AA DG|"G"B6DG|
"D"BA AA AA AA |"G"AG GG G2GB|"C"e2ee "D"ed cF|"G"G6Bc:|
% abcbook-tune_id 6342d53a6129ba801d19937e


% abcbook-boost 0
% abcbook-tablature 
% abcbook-transpose 
% abcbook-lastupdated 1665324376954
% abcbook-soundfonts 
% abcbook-repeats 1
% NFF Book 2020
% Bush Traditions recording played by Greg O'Leary

